Images/mobile_rip_header.svg

<svg width="430" height="669" viewBox="0 0 430 669" fill="none" xmlns="http://www.w3.org/2000/svg">
<path d="M430 664.347C429.16 664.158 428.259 664.096 427.386 664.17C427.659 665.338 427.386 666.549 426.564 667.587C424.994 666.261 422.775 665.093 420.239 665.035C417.675 664.977 415.023 666.476 415.412 668.163C414.043 667.01 411.666 666.448 409.52 666.765C409.332 665.712 409.131 664.645 408.943 663.593C406.883 664.746 403.814 663.636 401.667 662.569C399.491 661.517 396.177 660.566 394.434 661.936C393.18 662.887 391.235 664.213 389.42 663.853C387.619 663.478 386.149 662.599 384.405 662.108C382.086 661.46 379.477 661.546 376.956 661.633C372.792 661.791 368.413 662.007 364.94 663.55C363.37 664.242 361.756 665.251 359.926 664.978C358.759 664.805 357.865 664.141 356.698 663.968C355.272 663.737 353.86 664.285 352.477 664.688C351.122 665.078 349.292 665.237 348.385 664.458C347.996 664.141 347.823 663.68 347.333 663.435C346.224 662.858 344.61 663.738 343.227 663.507C342.016 663.291 341.541 662.338 340.705 661.704C338.486 660.061 334.437 661.041 331.556 662.137C331.512 661.56 331.455 660.984 331.412 660.407C329.453 662.051 325.418 661.574 322.796 660.378C320.202 659.196 318.041 657.452 315.029 656.817C313.603 658.144 311.773 659.268 309.67 660.09C309.699 658.403 309.497 656.701 309.137 655.015C305.736 655.202 302.307 655.39 298.906 655.577C296.687 655.692 293.907 655.62 292.941 654.279C291.357 654.553 291.875 656.571 290.276 656.846C289.686 656.947 289.109 656.745 288.59 656.543C287.193 656.01 285.781 655.477 284.354 654.943C283.317 656.515 281.703 657.928 279.7 659.009C278.807 659.484 277.669 659.917 276.617 659.687C275.292 659.398 274.859 658.302 273.908 657.596C272.698 656.687 270.623 656.5 268.851 656.803C267.107 657.12 265.58 657.855 264.11 658.576C261.013 660.104 257.886 661.618 254.788 663.132C253.131 663.939 251.042 664.79 249.169 664.242C244.962 663.017 239.342 664.833 238.377 667.832C236.936 667.27 235.524 666.693 234.098 666.131C233.233 666.895 232.628 667.76 232.282 668.683C230.913 667.875 229.271 667.025 227.484 667.227C226.548 667.342 225.727 667.717 224.862 668.005C222.701 668.697 220.036 668.654 217.903 667.904C216.419 667.385 215.295 665.799 216.779 665.266C214.359 664.473 211.203 664.776 209.229 666.001C208.293 666.578 207.601 667.327 206.606 667.86C205.612 668.379 204.099 668.654 203.091 668.135C201.996 667.587 201.967 666.405 200.829 665.9C199.187 665.194 197.27 666.462 195.383 666.779C193.668 667.082 191.81 666.506 190.585 665.641C189.389 664.776 188.654 663.65 187.962 662.555C186.161 663.218 184.345 663.896 182.516 664.573C182.501 663.982 182.458 663.405 182.415 662.814C180.758 662.786 179.101 662.742 177.444 662.699C177.271 662.224 177.07 661.762 176.883 661.301C175.673 661.546 174.332 661.791 173.237 661.416C172.113 661.041 171.796 659.743 172.978 659.455C172.185 658.533 170.73 658.172 169.174 658.359C167.632 658.532 166.336 659.412 166.076 660.45C164.981 659.729 163.627 659.196 162.157 658.922C161.61 658.821 160.961 658.764 160.558 659.009C159.52 659.629 161.336 660.566 161.696 661.46C162.041 662.31 160.831 663.161 159.521 663.319C158.238 663.463 156.941 663.132 155.717 662.801C156.005 663.723 155.702 664.775 154.665 665.424C153.656 666.087 151.841 666.188 150.832 665.511C149.175 664.386 150.241 661.877 148.008 661.358C145.89 660.868 144.478 663.06 142.288 663.392C141.798 662.195 141.683 660.926 141.942 659.687C139.378 660.638 135.948 660.407 133.715 659.139C132.75 658.591 131.785 657.812 130.531 657.913C128.615 658.072 127.491 660.191 125.704 659.687C125.272 659.182 125.07 658.605 125.084 658.028C123.758 658.446 121.857 658.778 121.021 657.956C120.762 657.697 120.676 657.365 120.445 657.076C119.566 656.024 117.16 656.327 115.561 656.918C113.961 657.509 112.045 658.244 110.475 657.624C109.956 657.422 109.567 657.091 109.135 656.788C107.118 655.404 104.077 654.972 101.238 654.597C98.4289 654.236 95.6339 653.876 92.8389 653.501C91.2972 653.299 89.654 653.112 88.1699 653.443C86.7292 653.775 85.5479 654.582 84.0352 654.727C81.5282 654.957 79.6408 653.386 77.7246 652.29C74.9006 650.675 71.2259 649.94 67.667 649.233C66.8747 649.075 66.0535 648.931 65.2324 649.018C64.296 649.133 63.5177 649.579 62.6533 649.896C61.2269 650.444 59.5117 650.661 57.8691 650.502C57.0056 649.551 58.705 648.311 58.1436 647.259C57.7689 646.581 56.6157 646.279 55.708 645.875C53.7342 644.938 52.9277 643.02 53.9219 641.535C52.2937 641.333 50.6508 641.132 49.0371 640.93C47.0344 640.699 44.3977 643.337 42.5391 642.789C41.7178 642.558 41.4012 641.91 41.0986 641.333C40.4503 640.108 39.4843 638.911 37.957 638.118C36.4011 637.325 34.2545 636.993 32.4824 637.541C31.2721 637.901 30.3785 638.637 29.125 638.926C27.8859 639.229 26.0563 638.68 26.3301 637.815C25.0046 638.709 22.2239 637.743 22.5693 636.489C21.5608 636.879 20.5662 637.268 19.5576 637.657C19.0822 637.845 18.5491 638.046 17.9873 637.988C17.4542 637.945 16.9645 637.527 17.2383 637.195C16.028 638.219 13.6932 637.326 11.8057 637.052C10.4514 636.85 9.03935 637.037 7.65625 637.225C5.75453 637.484 3.83848 637.743 1.95117 638.003C1.37484 638.075 0.769164 638.162 0.336914 638.436C0.201469 638.524 0.0928349 638.625 0 638.733V-140H430V664.347Z" fill="white"/>
</svg>

<svg xmlns="http://www.w3.org/2000/svg" width="430" height="669" fill="none" viewBox="0 0 430 669"><path fill="#fff" d="M430 664.35a9 9 0 0 0-2.61-.18c.27 1.17 0 2.38-.83 3.42a10.4 10.4 0 0 0-6.32-2.56c-2.56-.05-5.22 1.45-4.83 3.13-1.37-1.15-3.74-1.71-5.89-1.4l-.58-3.17c-2.06 1.16-5.13.05-7.27-1.02-2.18-1.05-5.5-2-7.24-.63-1.25.95-3.2 2.27-5.01 1.91s-3.27-1.25-5.02-1.74c-2.31-.65-4.92-.56-7.44-.48-4.17.16-8.55.38-12.02 1.92-1.57.7-3.18 1.7-5.01 1.43-1.17-.18-2.06-.84-3.23-1.01-1.43-.23-2.84.31-4.22.72-1.36.39-3.19.55-4.1-.23-.38-.32-.56-.78-1.05-1.03-1.1-.57-2.72.3-4.1.08-1.21-.22-1.69-1.17-2.53-1.8-2.21-1.65-6.26-.67-9.14.43l-.15-1.73c-1.96 1.64-6 1.16-8.61-.03-2.6-1.18-4.76-2.93-7.77-3.56a17 17 0 0 1-5.36 3.27 23 23 0 0 0-.53-5.08q-5.11.3-10.23.57c-2.22.11-5 .04-5.97-1.3-1.58.27-1.06 2.3-2.66 2.57a3 3 0 0 1-1.69-.3q-2.09-.8-4.24-1.6a13 13 0 0 1-4.65 4.06c-.9.47-2.03.9-3.08.68-1.33-.3-1.76-1.39-2.71-2.1-1.21-.9-3.29-1.09-5.06-.79a18 18 0 0 0-4.74 1.78l-9.32 4.55c-1.66.8-3.75 1.66-5.62 1.11-4.2-1.22-9.83.6-10.8 3.6q-2.14-.87-4.27-1.7a6.4 6.4 0 0 0-1.82 2.54c-1.37-.8-3-1.65-4.8-1.45-.93.11-1.75.49-2.62.77-2.16.7-4.82.65-6.96-.1-1.48-.51-2.6-2.1-1.12-2.63-2.42-.8-5.58-.5-7.55.73-.94.58-1.63 1.33-2.62 1.86-1 .52-2.51.8-3.52.27-1.1-.54-1.12-1.73-2.26-2.23-1.64-.7-3.56.56-5.45.88a6.7 6.7 0 0 1-4.8-1.14 10 10 0 0 1-2.62-3.09l-5.44 2.02q-.03-.88-.1-1.76-2.49-.04-4.98-.11-.26-.72-.56-1.4c-1.2.25-2.55.5-3.64.12-1.13-.38-1.44-1.68-.26-1.96-.8-.93-2.25-1.29-3.8-1.1-1.55.17-2.84 1.05-3.1 2.09a11 11 0 0 0-3.92-1.53c-.55-.1-1.2-.16-1.6.09-1.04.62.78 1.56 1.14 2.45.34.85-.87 1.7-2.18 1.86-1.28.14-2.58-.19-3.8-.52.28.92-.02 1.98-1.06 2.62-1 .67-2.82.77-3.83.1-1.66-1.13-.59-3.64-2.82-4.16-2.12-.5-3.53 1.7-5.72 2.03a6.3 6.3 0 0 1-.35-3.7c-2.56.95-6 .72-8.22-.55-.97-.55-1.94-1.33-3.19-1.23-1.91.16-3.04 2.28-4.83 1.78a2.4 2.4 0 0 1-.62-1.66c-1.32.42-3.22.75-4.06-.07-.26-.26-.34-.6-.58-.88-.87-1.06-3.28-.75-4.88-.16s-3.52 1.32-5.09.7c-.51-.2-.9-.53-1.33-.83-2.02-1.39-5.06-1.82-7.9-2.2q-4.2-.52-8.4-1.09c-1.54-.2-3.19-.39-4.67-.06-1.44.33-2.62 1.14-4.13 1.29-2.51.23-4.4-1.34-6.32-2.44-2.82-1.62-6.5-2.35-10.05-3.06-.8-.15-1.62-.3-2.44-.21-.93.11-1.71.56-2.58.88-1.42.54-3.14.76-4.78.6-.86-.95.84-2.19.27-3.24-.37-.68-1.52-.98-2.43-1.38-1.98-.94-2.78-2.86-1.79-4.35l-4.88-.6c-2-.23-4.64 2.4-6.5 1.86-.82-.23-1.14-.88-1.44-1.46a7.4 7.4 0 0 0-3.14-3.21 7.7 7.7 0 0 0-5.48-.58c-1.2.36-2.1 1.1-3.35 1.39-1.24.3-3.07-.25-2.8-1.11-1.33.89-4.1-.08-3.76-1.33l-3.01 1.17c-.48.19-1.01.39-1.57.33-.54-.04-1.03-.46-.75-.8-1.21 1.03-3.55.14-5.43-.14-1.36-.2-2.77-.01-4.15.18l-5.7.77c-.59.08-1.2.16-1.62.44q-.2.12-.34.3V-140h430z"/></svg>
